X: 587
T: Home Ruler
B: good tune book
B: tunes
M:4/4
R: hornpipe
Q: 1/4=100
K:Dmajor
V:1 
|:(3A,B,C|D2FA D2FA|dfed BcdB|A3B AFDE|(3FED AD BDAF|
 D2FA D2FA|dfed BcdB|A3B AFEG|FA D2 D2:|
 |:FG|Addc defg|afbf afed|efed BAFA|fded BdA2|
 Addc defg|afbf afed|efed BedB|AFEF D2:|
% abcbook-tune_id 63dce42eaad320f6ad51e5f7
% abcbook-tune_composer_id 
% abcbook-link-0 https://www.youtube.com/watch?v=MKreRX7JG_o
% abcbook-link-title-0 The Máirtín O&#39;Connor Band play &#39;The Home Ruler&#39;: Traditional Irish Music from LiveTrad.com
% abcbook-boost 11
% abcbook-difficulty 0
% abcbook-tags good tune book
% abcbook-tablature 
% abcbook-transpose 
% abcbook-tuning 
% abcbook-lastupdated 1675485068136
% abcbook-soundfonts 
% abcbook-repeats 1


